packages/components/bolt-icons/src/svgs/utility/asset-link.svg

<?xml version="1.0" encoding="UTF-8" standalone="no"?>
<svg width="24px" height="24px" viewBox="0 0 24 24" version="1.1" xmlns="http://www.w3.org/2000/svg" xmlns:xlink="http://www.w3.org/1999/xlink">
    <!-- Generator: Sketch 47.1 (45422) - http://www.bohemiancoding.com/sketch -->
    <title>Icon/utility/Indigo/24px/Asset-Link</title>
    <desc>Created with Sketch.</desc>
    <defs>
        <polygon id="path-1" points="0.0004 3.55271368e-15 24 3.55271368e-15 24 23.9997 0.0004 23.9997"></polygon>
    </defs>
    <g id="Symbols" stroke="none" stroke-width="1" fill="none" fill-rule="evenodd">
        <g id="Icon/utility/Indigo/24px/Asset-Link">
            <g id="Page-1">
                <g id="Clip-2"></g>
                <path d="M22.7344,3.2007 L20.8054,1.2727 C19.9964,0.4277 18.9864,-0.0003 17.8044,-0.0003 C16.6314,-0.0003 15.6274,0.3927 14.8064,1.1797 L12.7554,3.2757 C12.4804,3.5287 12.3374,3.8107 12.3304,4.1157 C12.3234,4.4257 12.4614,4.7257 12.7404,5.0047 C13.2434,5.5067 13.9984,5.4627 14.4544,5.0047 L16.5244,2.9347 C16.8514,2.6077 17.3054,2.4587 17.7944,2.4677 C18.3314,2.4797 18.7534,2.6467 19.0864,2.9797 L21.0334,4.9267 C21.3844,5.2547 21.5544,5.6687 21.5544,6.1947 C21.5544,6.7277 21.3944,7.1457 21.0654,7.4757 L14.5414,14.0007 C14.1724,14.3677 13.6934,14.5657 13.0734,14.6037 C12.4694,14.6397 12.0564,14.5057 11.7544,14.1807 L10.9504,13.3767 L10.2824,12.7087 C10.0024,12.4057 9.7074,12.2617 9.3804,12.2627 C9.0694,12.2697 8.7824,12.4257 8.5854,12.6687 C8.2854,12.9227 8.1294,13.2097 8.1224,13.5207 C8.1164,13.8397 8.2654,14.1427 8.5554,14.4087 L10.0084,15.8627 L10.0354,16.1697 L10.3774,16.1697 C11.0754,16.7397 11.9344,17.0277 12.9334,17.0277 C12.9874,17.0277 13.0414,17.0267 13.0944,17.0247 C14.0344,16.9967 14.8754,16.7307 15.6004,16.2347 L15.6904,16.3237 L16.0294,15.9847 C16.0584,15.9547 16.0984,15.9077 16.1484,15.8397 L22.8324,9.1817 C23.6074,8.3727 24.0004,7.3677 24.0004,6.1947 C24.0004,5.0137 23.5714,4.0047 22.7344,3.2007 M11.2644,18.9147 C11.5774,19.2227 11.7144,19.5187 11.7144,19.8297 C11.7144,20.1407 11.5774,20.4367 11.3044,20.7097 L9.2484,22.7637 C8.4244,23.5897 7.4324,23.9997 6.2854,23.9997 C5.1414,23.9997 4.1364,23.5917 3.2974,22.7867 L1.2204,20.7097 C0.4094,19.8637 0.0004,18.8587 0.0004,17.7147 C0.0004,16.5677 0.4104,15.5757 1.2204,14.7657 L8.0154,7.9707 C8.8254,7.1607 9.8174,6.7497 10.9644,6.7497 C12.1124,6.7497 13.1044,7.1607 13.9144,7.9707 L15.4894,9.5457 C15.7604,9.7727 15.9164,10.0597 15.9224,10.3707 C15.9284,10.6897 15.7794,10.9927 15.4754,11.2727 C15.0044,11.7467 14.2334,11.7157 13.7754,11.2597 L12.2004,9.6847 C11.5384,9.0217 10.4354,9.0267 9.7164,9.6967 L2.9344,16.4797 C2.6094,16.8287 2.4454,17.2437 2.4454,17.7377 C2.4454,18.2247 2.6054,18.6207 2.9344,18.9507 L5.0494,21.0657 C5.7124,21.7277 6.8134,21.7227 7.5334,21.0537 L9.5874,18.9547 C9.7374,18.8047 10.0004,18.6297 10.4244,18.6297 C10.7464,18.6297 11.0284,18.7257 11.2644,18.9147" id="Fill-1" fill="#1F2555" mask="url(#mask-2)"></path>
            </g>
        </g>
    </g>
</svg>

<?xml version="1.0" encoding="utf-8"?>
<!-- Generator: Adobe Illustrator 24.0.3, SVG Export Plug-In . SVG Version: 6.00 Build 0)  -->
<svg version="1.1" id="Layer_1" xmlns="http://www.w3.org/2000/svg" xmlns:xlink="http://www.w3.org/1999/xlink" x="0px" y="0px"
	 viewBox="0 0 24 24" enable-background="new 0 0 24 24" xml:space="preserve">
<path id="Fill-1" fill-rule="evenodd" clip-rule="evenodd" d="M22.7,3.2l-1.9-1.9C20,0.4,19,0,17.8,0s-2.2,0.4-3,1.2l-2.1,2.1
	c-0.3,0.3-0.4,0.5-0.4,0.8c0,0.3,0.1,0.6,0.4,0.9c0.5,0.5,1.3,0.5,1.7,0l2.1-2.1c0.3-0.3,0.8-0.5,1.3-0.5s1,0.2,1.3,0.5l1.9,2
	c0.4,0.3,0.5,0.7,0.5,1.3c0,0.5-0.2,1-0.5,1.3L14.5,14c-0.4,0.4-0.8,0.6-1.5,0.6c-0.6,0-1-0.1-1.3-0.4L11,13.4l-0.7-0.7
	c-0.3-0.3-0.6-0.4-0.9-0.4c-0.3,0-0.6,0.2-0.8,0.4c-0.3,0.3-0.5,0.5-0.5,0.9c0,0.3,0.1,0.6,0.4,0.9L10,16v0.3h0.3
	c0.7,0.6,1.6,0.9,2.6,0.9c0.1,0,0.1,0,0.2,0c0.9,0,1.8-0.3,2.5-0.8l0.1,0.1L16,16l0.1-0.1l6.7-6.7c0.8-0.8,1.2-1.8,1.2-3
	S23.6,4,22.7,3.2 M11.3,18.9c0.3,0.3,0.5,0.6,0.5,0.9s-0.1,0.6-0.4,0.9l-2.1,2.1c-0.8,0.8-1.8,1.2-3,1.2c-1.1,0-2.1-0.4-3-1.2
	l-2.1-2.1c-0.8-0.8-1.2-1.9-1.2-3s0.4-2.1,1.2-2.9L8,8c0.8-0.8,1.8-1.3,3-1.3c1.1,0,2.1,0.4,2.9,1.2l1.6,1.6
	c0.3,0.2,0.4,0.5,0.4,0.8s-0.1,0.6-0.4,0.9c-0.5,0.5-1.2,0.4-1.7,0l-1.6-1.6C11.5,9,10.4,9,9.7,9.7l-6.8,6.8
	c-0.3,0.3-0.5,0.8-0.5,1.3s0.2,0.9,0.5,1.2L5,21.1c0.7,0.7,1.8,0.7,2.5,0L9.6,19c0.1-0.1,0.4-0.3,0.8-0.3
	C10.7,18.6,11,18.7,11.3,18.9"/>
</svg>
